X:635
T:O'Farrell's Welcome to Limerick
R:slip jig
C:Chieftains
Z:id:hn-slipjig-10
M:9/8
K:D
FGA AFA =c3|BAG FAF GED|FGA AFA d3|dfe dcA GED:|
|:dcd ege d2A|dcd faf gec|afa ged =c2A|BAG FAF GED:|
|:FGA AFd AFd|AFd AFA GED|FGA AFA =c3|BAG FAF GED:|
|:DED DED =c3|=c2B c2A GED|DED DED d3|dfe dcA GED:|
|:dcd ege =c2A|dcd faf gec|afa ged =c2A|BAG FAF GED:|
